docs/file-pdf-solid.svg

<svg fill="#fff" viewBox="0 0 448 512" xmlns="http://www.w3.org/2000/svg"><path d="m0 64c0-35.3 28.7-64 64-64h160v128c0 17.7 14.3 32 32 32h128v144h-88-24-88-24c-35.3 0-64 28.7-64 64v80 48 16h-32c-35.3 0-64-28.7-64-64zm384 64h-128v-128zm-224 224h24c30.9 0 56 25.1 56 56s-25.1 56-56 56h-8v32c0 8.8-7.2 16-16 16s-16-7.2-16-16v-48-80c0-8.8 7.2-16 16-16zm24 80c13.3 0 24-10.7 24-24s-10.7-24-24-24h-8v48zm88-80h24c26.5 0 48 21.5 48 48v64c0 26.5-21.5 48-48 48h-24c-8.8 0-16-7.2-16-16v-128c0-8.8 7.2-16 16-16zm24 128c8.8 0 16-7.2 16-16v-64c0-8.8-7.2-16-16-16h-8v96zm72-112c0-8.8 7.2-16 16-16h48c8.8 0 16 7.2 16 16s-7.2 16-16 16h-32v32h32c8.8 0 16 7.2 16 16s-7.2 16-16 16h-32v48c0 8.8-7.2 16-16 16s-16-7.2-16-16v-64z"/></svg>

<svg xmlns="http://www.w3.org/2000/svg" viewBox="0 0 448 512" fill="#fff"><!--! Font Awesome Pro 6.3.0 by @fontawesome - https://fontawesome.com License - https://fontawesome.com/license (Commercial License) Copyright 2023 Fonticons, Inc. --><path d="M0 64C0 28.7 28.7 0 64 0H224V128c0 17.7 14.3 32 32 32H384V304H296 272 184 160c-35.3 0-64 28.7-64 64v80 48 16H64c-35.3 0-64-28.7-64-64V64zm384 64H256V0L384 128zM160 352h24c30.9 0 56 25.1 56 56s-25.1 56-56 56h-8v32c0 8.8-7.2 16-16 16s-16-7.2-16-16V448 368c0-8.8 7.2-16 16-16zm24 80c13.3 0 24-10.7 24-24s-10.7-24-24-24h-8v48h8zm88-80h24c26.5 0 48 21.5 48 48v64c0 26.5-21.5 48-48 48H272c-8.8 0-16-7.2-16-16V368c0-8.8 7.2-16 16-16zm24 128c8.8 0 16-7.2 16-16V400c0-8.8-7.2-16-16-16h-8v96h8zm72-112c0-8.8 7.2-16 16-16h48c8.8 0 16 7.2 16 16s-7.2 16-16 16H400v32h32c8.8 0 16 7.2 16 16s-7.2 16-16 16H400v48c0 8.8-7.2 16-16 16s-16-7.2-16-16V432 368z"/></svg>
